packages/kaspersky-hexa-ui-icons/src/iconsSVGs/16/WholeWord.svg

<svg width="16" height="16" viewBox="0 0 16 16" fill="none" xmlns="http://www.w3.org/2000/svg">
<path d="M2.25269 7.66885L3.41007 6.06308C3.41007 6.06308 3.56053 5.86125 3.78247 5.96933C4.0044 6.0774 3.94393 6.29745 3.94393 6.29745L3.55222 7.49951C3.82209 7.6786 4 7.98519 4 8.33334C4 8.88563 3.55228 9.33334 3 9.33334C2.44772 9.33334 2 8.88563 2 8.33334C2 8.07827 2.0955 7.8455 2.25269 7.66885Z" fill="black"/>
<path d="M6.66565 8.33334C6.66565 8.88563 6.21793 9.33334 5.66565 9.33334C5.11336 9.33334 4.66565 8.88563 4.66565 8.33334C4.66565 8.07862 4.76089 7.84614 4.9177 7.66957L6.0756 6.06308C6.0756 6.06308 6.22606 5.86125 6.44799 5.96933C6.66993 6.0774 6.60945 6.29745 6.60945 6.29745L6.21777 7.49945C6.48769 7.67852 6.66565 7.98515 6.66565 8.33334Z" fill="black"/>
<path d="M12 9C12 8.44771 12.4477 8 13 8C13.5523 8 14 8.44771 14 9C14 9.25507 13.9045 9.48784 13.7473 9.6645L12.5899 11.2703C12.5899 11.2703 12.4395 11.4721 12.2175 11.364C11.9956 11.2559 12.0561 11.0359 12.0561 11.0359L12.4478 9.83383C12.1779 9.65475 12 9.34815 12 9Z" fill="black"/>
<path d="M9.33435 9C9.33435 8.44771 9.78207 8 10.3344 8C10.8866 8 11.3344 8.44771 11.3344 9C11.3344 9.25472 11.2391 9.4872 11.0823 9.66377L9.9244 11.2703C9.9244 11.2703 9.77394 11.4721 9.55201 11.364C9.33007 11.2559 9.39055 11.0359 9.39055 11.0359L9.78223 9.8339C9.51231 9.65482 9.33435 9.34819 9.33435 9Z" fill="black"/>
</svg>

<svg xmlns="http://www.w3.org/2000/svg" width="16" height="16" fill="none" viewBox="0 0 16 16"><path fill="#000" fill-rule="evenodd" d="m2.2527 7.6688 1.1574-1.6057s.1504-.2018.3724-.0938c.2219.1081.1614.3282.1614.3282l-.3917 1.202A.999.999 0 0 1 4 8.3333c0 .5523-.4477 1-1 1s-1-.4477-1-1c0-.255.0955-.4878.2527-.6645m4.413.6645c0 .5523-.4478 1-1 1s-1-.4477-1-1a.996.996 0 0 1 .252-.6637L6.0756 6.063s.1505-.2018.3724-.0938.1615.3282.1615.3282l-.3917 1.202a.999.999 0 0 1 .4478.8338M9.3343 9c0-.5523.4477-1 1-1s1 .4477 1 1a.996.996 0 0 1-.2521.6638l-1.1579 1.6065s-.1505.2018-.3724.0937-.1615-.3281-.1615-.3281l.3917-1.202A.999.999 0 0 1 9.3344 9M12 9c0-.5523.4477-1 1-1s1 .4477 1 1a.996.996 0 0 1-.2527.6645l-1.1574 1.6058s-.1504.2018-.3724.0937c-.2219-.1081-.1614-.3281-.1614-.3281l.3917-1.202A.999.999 0 0 1 12 9"/></svg>
